X:340
T:Old Wife Of Coverdale
M:9/8
L:1/8
K:Emin
EFE G2B BAG | FEF D2F FED | 
EFE G2B BAG | FEF DEF E3 :| 
edc BAG F3 | d3 F3 d3 | 
edc BAG F2F | DEF E3 E3 :| 

